static/images/icons/twitter.svg

<svg width="42" height="42" viewBox="0 0 42 42" fill="none" xmlns="http://www.w3.org/2000/svg">
<path fill-rule="evenodd" clip-rule="evenodd" d="M33 15.25C32.1401 15.6371 31.2263 15.8914 30.29 16.004C31.2795 15.3995 32.0166 14.457 32.365 13.351C31.4407 13.9091 30.4267 14.3029 29.368 14.515C28.9301 14.0378 28.3979 13.6567 27.8051 13.3959C27.2122 13.1351 26.5717 13.0003 25.924 13C23.318 13 21.205 15.147 21.205 17.796C21.205 18.172 21.247 18.538 21.327 18.889C17.405 18.689 13.928 16.779 11.601 13.878C11.1808 14.6119 10.9604 15.4433 10.962 16.289C10.962 17.953 11.795 19.422 13.062 20.282C12.3113 20.258 11.5776 20.0521 10.924 19.682V19.742C10.924 22.066 12.55 24.005 14.709 24.445C14.015 24.6372 13.2858 24.6656 12.579 24.528C13.179 26.433 14.921 27.82 16.986 27.858C16.0125 28.6376 14.8931 29.2151 13.6935 29.5564C12.4939 29.8978 11.2382 29.9963 10 29.846C12.15 31.2526 14.6638 32.0012 17.233 32C25.913 32 30.659 24.691 30.659 18.353C30.659 18.145 30.654 17.938 30.645 17.733C31.5714 17.0512 32.3689 16.2097 33 15.248V15.25Z" fill="white"/>
</svg>

<svg xmlns="http://www.w3.org/2000/svg" width="42" height="42" fill="none" viewBox="0 0 42 42"><linearGradient id="b" x1="8.5" x2="34.5" y1="7" y2="36" gradientUnits="userSpaceOnUse"><stop offset="0" stop-color="#fec976"/><stop offset=".5" stop-color="#ffea8d"/><stop offset="1" stop-color="#cade39"/></linearGradient><clipPath id="a"><path d="M0 0h42v42H0z"/></clipPath><g clip-path="url(#a)"><path fill="url(#b)" d="M21 42c11.598 0 21-9.402 21-21S32.598 0 21 0 0 9.402 0 21s9.402 21 21 21z"/><path fill="#0e1025" fill-rule="evenodd" d="M33 15.25a9.31 9.31 0 0 1-2.71.754 4.798 4.798 0 0 0 2.075-2.653 9.353 9.353 0 0 1-2.997 1.164A4.677 4.677 0 0 0 25.924 13c-2.606 0-4.719 2.147-4.719 4.796 0 .376.042.742.122 1.093-3.922-.2-7.399-2.11-9.726-5.011a4.834 4.834 0 0 0-.639 2.411c0 1.664.833 3.133 2.1 3.993a4.64 4.64 0 0 1-2.138-.6v.06c0 2.324 1.626 4.263 3.785 4.703a4.65 4.65 0 0 1-2.13.083c.6 1.905 2.342 3.292 4.407 3.33A9.37 9.37 0 0 1 10 29.846 13.2 13.2 0 0 0 17.233 32c8.68 0 13.426-7.309 13.426-13.647 0-.208-.005-.415-.014-.62A9.68 9.68 0 0 0 33 15.248z" clip-rule="evenodd"/></g></svg>
